icons/evolvere-blue-folders-flat-vivid-dark-fallback/apps/64/preferences-color.svg

<?xml version="1.0" encoding="UTF-8" standalone="no"?>
<!-- Created with Inkscape (http://www.inkscape.org/) -->

<svg
   xmlns:dc="http://purl.org/dc/elements/1.1/"
   xmlns:cc="http://creativecommons.org/ns#"
   xmlns:rdf="http://www.w3.org/1999/02/22-rdf-syntax-ns#"
   xmlns:svg="http://www.w3.org/2000/svg"
   xmlns="http://www.w3.org/2000/svg"
   xmlns:sodipodi="http://sodipodi.sourceforge.net/DTD/sodipodi-0.dtd"
   xmlns:inkscape="http://www.inkscape.org/namespaces/inkscape"
   width="64"
   height="64"
   id="svg13094"
   version="1.1"
   inkscape:version="0.91+devel r"
   sodipodi:docname="preferences-color.svg">
  <sodipodi:namedview
     id="base"
     pagecolor="#ffffff"
     bordercolor="#666666"
     borderopacity="1.0"
     inkscape:pageopacity="0"
     inkscape:pageshadow="2"
     inkscape:zoom="8.0000004"
     inkscape:cx="35.450207"
     inkscape:cy="34.903081"
     inkscape:document-units="px"
     inkscape:current-layer="svg13094"
     showgrid="false"
     inkscape:snap-bbox="true"
     inkscape:bbox-paths="true"
     inkscape:bbox-nodes="true"
     inkscape:snap-bbox-edge-midpoints="true"
     inkscape:snap-bbox-midpoints="true"
     inkscape:object-paths="true"
     inkscape:snap-intersection-paths="true"
     inkscape:object-nodes="true"
     inkscape:snap-smooth-nodes="true"
     inkscape:snap-midpoints="true"
     inkscape:snap-object-midpoints="true"
     inkscape:snap-center="true"
     showguides="false"
     inkscape:guide-bbox="true"
     inkscape:window-width="1920"
     inkscape:window-height="1023"
     inkscape:window-x="-10"
     inkscape:window-y="35"
     inkscape:window-maximized="1"
     inkscape:snap-global="true"
     fit-margin-top="0"
     fit-margin-left="0"
     fit-margin-right="0"
     fit-margin-bottom="0"
     showborder="true"
     inkscape:showpageshadow="false"
     inkscape:snap-page="true">
    <inkscape:grid
       type="xygrid"
       id="grid3075"
       empspacing="5"
       visible="true"
       enabled="true"
       snapvisiblegridlinesonly="true"
       originx="1.6362304e-08px"
       originy="18px" />
    <sodipodi:guide
       orientation="0,1"
       position="-11,30"
       id="guide9148" />
    <sodipodi:guide
       orientation="1,0"
       position="32,70"
       id="guide9150" />
  </sodipodi:namedview>
  <defs
     id="defs13096" />
  <metadata
     id="metadata13099">
    <rdf:RDF>
      <cc:Work
         rdf:about="">
        <dc:format>image/svg+xml</dc:format>
        <dc:type
           rdf:resource="http://purl.org/dc/dcmitype/StillImage" />
        <dc:title></dc:title>
      </cc:Work>
    </rdf:RDF>
  </metadata>
  <path
     id="path3866"
     d="m 0,4 0,30 0,28 2,2 30,0 30,0 2,-2 L 64,34 64,4 32,4 0,4 Z"
     style="color:#000000;display:inline;overflow:visible;visibility:visible;fill:#6c7177;fill-opacity:1;fill-rule:nonzero;stroke:none;stroke-width:2.28571415;marker:none;enable-background:accumulate"
     inkscape:connector-curvature="0" />
  <path
     inkscape:connector-curvature="0"
     style="color:#000000;display:inline;overflow:visible;visibility:visible;fill:#608ec1;fill-opacity:1;fill-rule:nonzero;stroke:none;marker:none;enable-background:accumulate"
     d="M 2,0 0,1 0,4 32,4 64,4 64,1 62,0 32,0 2,0 Z"
     id="path6688" />
  <g
     id="g3043"
     inkscape:export-filename="folder.png"
     inkscape:export-xdpi="90"
     inkscape:export-ydpi="90"
     transform="translate(-0.62500009,0.082283)" />
  <g
     id="scalable"
     transform="matrix(1.0385892,0,0,1.0385892,1214.7222,1878.8121)"
     inkscape:label="#g3701"
     style="fill:#ffffff" />
  <path
     id="path3966"
     d="M 2,0 0,1 0,4 32,4 64,4 64,1 62,0 32,0 2,0 Z"
     style="color:#000000;display:inline;overflow:visible;visibility:visible;fill:#6c7177;fill-opacity:1;fill-rule:nonzero;stroke:none;stroke-width:2.28571415;marker:none;enable-background:accumulate"
     inkscape:connector-curvature="0" />
  <path
     inkscape:connector-curvature="0"
     style="color:#000000;display:inline;overflow:visible;visibility:visible;fill:#2c6bb7;fill-opacity:1;fill-rule:nonzero;stroke:none;stroke-width:2.28571415;marker:none;enable-background:accumulate"
     d="m 0,4 0,30 0,28 2,2 30,0 30,0 2,-2 L 64,34 64,4 32,4 0,4 Z"
     id="path3851" />
  <path
     inkscape:connector-curvature="0"
     style="color:#000000;display:inline;overflow:visible;visibility:visible;opacity:0.69197585;fill:#ed3a12;fill-opacity:1;fill-rule:nonzero;stroke:none;stroke-width:1;marker:none;enable-background:accumulate"
     d="M 0,44.125 0,62 l 2,2 30,0 30,0 2,-2 0,-15.84375 C 62.201119,44.878508 60.009096,44.125 57.625,44.125 L 0,44.125 Z"
     id="rect3814" />
  <path
     inkscape:connector-curvature="0"
     style="color:#000000;display:inline;overflow:visible;visibility:visible;opacity:0.69197585;fill:#f69422;fill-opacity:1;fill-rule:nonzero;stroke:none;stroke-width:1;marker:none;enable-background:accumulate"
     d="M 0,25.34375 0,34 0,48.15625 55.15625,62.9375 C 58.306944,63.781726 61.475803,63.172625 64,61.53125 L 64,43.0625 C 63.057364,42.454688 61.988147,41.96289 60.84375,41.65625 L 0,25.34375 Z"
     id="use3820" />
  <path
     inkscape:connector-curvature="0"
     style="color:#000000;display:inline;overflow:visible;visibility:visible;opacity:0.69197585;fill:#ffe01b;fill-opacity:1;fill-rule:nonzero;stroke:none;stroke-width:1;marker:none;enable-background:accumulate"
     d="M 0,4 0,28.25 53.59375,59.1875 C 56.917962,61.106735 60.813093,61.110414 64,59.53125 L 64,39.75 2.09375,4 0,4 Z"
     id="use3822" />
  <path
     inkscape:connector-curvature="0"
     style="color:#000000;display:inline;overflow:visible;visibility:visible;opacity:0.69197585;fill:#70cc21;fill-opacity:1;fill-rule:nonzero;stroke:none;stroke-width:1;marker:none;enable-background:accumulate"
     d="M 1.90625,4 53.0625,55.15625 C 56.036135,58.129885 60.249095,59.062561 64,57.9375 l 0,-23 L 33.0625,4 32,4 1.90625,4 Z"
     id="use3824" />
  <path
     inkscape:connector-curvature="0"
     style="color:#000000;display:inline;overflow:visible;visibility:visible;opacity:0.69197585;fill:#21de94;fill-opacity:1;fill-rule:nonzero;stroke:none;stroke-width:1;marker:none;enable-background:accumulate"
     d="m 26.40625,4 27.1875,47.125 C 55.792257,54.932926 59.903936,56.916248 64,56.59375 L 64,34 64,25.09375 51.8125,4 32,4 26.40625,4 Z"
     id="use3826" />
  <path
     inkscape:connector-curvature="0"
     style="color:#000000;display:inline;overflow:visible;visibility:visible;opacity:0.69197585;fill:#2484e8;fill-opacity:1;fill-rule:nonzero;stroke:none;stroke-width:1;marker:none;enable-background:accumulate"
     d="m 43.53125,4 11.625,43.375 c 1.158279,4.322756 4.710801,7.319557 8.84375,8 L 64,34 64,4 43.53125,4 Z"
     id="use3828" />
  <path
     inkscape:connector-curvature="0"
     style="color:#000000;display:inline;overflow:visible;visibility:visible;opacity:0.69197585;fill:#8344e3;fill-opacity:1;fill-rule:nonzero;stroke:none;stroke-width:1;marker:none;enable-background:accumulate"
     d="m 57.625,4 0,40.125 c 0,4.442754 2.603692,8.255277 6.375,10 L 64,34 64,4 57.625,4 Z"
     id="use3818" />
  <path
     inkscape:connector-curvature="0"
     style="color:#000000;display:inline;overflow:visible;visibility:visible;fill:#bf99ff;fill-opacity:1;fill-rule:nonzero;stroke:none;stroke-width:1;marker:none;enable-background:accumulate"
     d="m 57.625,0 0,4 L 64,4 64,1 62,0 57.625,0 Z"
     id="rect3954" />
  <rect
     transform="scale(-1,1)"
     y="0"
     x="-57.625"
     height="4"
     width="5.8125"
     id="rect3956"
     style="color:#000000;display:inline;overflow:visible;visibility:visible;fill:#6bc5ff;fill-opacity:1;fill-rule:nonzero;stroke:none;stroke-width:1;marker:none;enable-background:accumulate" />
  <rect
     y="0"
     x="43.53125"
     height="4"
     width="8.28125"
     id="rect3958"
     style="color:#000000;display:inline;overflow:visible;visibility:visible;fill:#6dd4ff;fill-opacity:1;fill-rule:nonzero;stroke:none;stroke-width:1;marker:none;enable-background:accumulate" />
  <rect
     transform="scale(-1,1)"
     y="0"
     x="-43.53125"
     height="4"
     width="10.46875"
     id="rect3960"
     style="color:#000000;display:inline;overflow:visible;visibility:visible;fill:#56f6d6;fill-opacity:1;fill-rule:nonzero;stroke:none;stroke-width:1;marker:none;enable-background:accumulate" />
  <rect
     y="0"
     x="26.40625"
     height="4"
     width="6.65625"
     id="rect3962"
     style="color:#000000;display:inline;overflow:visible;visibility:visible;fill:#6dff98;fill-opacity:1;fill-rule:nonzero;stroke:none;stroke-width:1;marker:none;enable-background:accumulate" />
  <rect
     transform="scale(-1,1)"
     y="0"
     x="-26.40625"
     height="4"
     width="24.40625"
     id="rect3964"
     style="color:#000000;display:inline;overflow:visible;visibility:visible;fill:#88ee56;fill-opacity:1;fill-rule:nonzero;stroke:none;stroke-width:1;marker:none;enable-background:accumulate" />
  <path
     inkscape:connector-curvature="0"
     style="color:#000000;display:inline;overflow:visible;visibility:visible;fill:#faeb62;fill-opacity:1;fill-rule:nonzero;stroke:none;stroke-width:1;marker:none;enable-background:accumulate"
     d="M 2,0 0,1 0,4 2,4 2,0 Z"
     id="rect3952" />
  <path
     inkscape:connector-curvature="0"
     style="fill:#f8ee9a;fill-opacity:1;fill-rule:nonzero"
     d="M 0,3 0,6 2,4 Z"
     id="path4298"
     sodipodi:nodetypes="cccc" />
  <path
     d="M 64,6 62,4 64,3 Z"
     id="path3028"
     style="fill:#8f74ee;fill-opacity:1"
     inkscape:connector-curvature="0" />
</svg>

<svg xmlns="http://www.w3.org/2000/svg" viewBox="0 0 64 64"><g color="#000"><path d="m0 4v30 28l2 2h30 30l2-2v-28-30h-32-32" fill="#6c7177"/><path d="m2 0l-2 1v3h32 32v-3l-2-1h-30-30" fill="#608ec1"/><path d="m2 0l-2 1v3h32 32v-3l-2-1h-30-30" fill="#6c7177"/><path d="m0 4v30 28l2 2h30 30l2-2v-28-30h-32-32" fill="#2c6bb7"/><path d="m0 44.13v17.875l2 2h30 30l2-2v-15.844c-1.799-1.278-3.991-2.031-6.375-2.031h-57.62" opacity=".692" fill="#ed3a12"/><path d="m0 25.344v8.656 14.156l55.16 14.781c3.151.844 6.32.235 8.844-1.406v-18.469c-.943-.608-2.01-1.1-3.156-1.406l-60.844-16.313" opacity=".692" fill="#f69422"/><path d="m0 4v24.25l53.594 30.938c3.324 1.919 7.219 1.923 10.406.344v-19.781l-61.906-35.75h-2.094" opacity=".692" fill="#ffe01b"/><path d="m1.906 4l51.16 51.16c2.974 2.974 7.187 3.906 10.938 2.781v-23l-30.938-30.938h-1.063-30.09" opacity=".692" fill="#70cc21"/><path d="m26.406 4l27.19 47.13c2.199 3.808 6.31 5.791 10.406 5.469v-22.594-8.906l-12.188-21.09h-19.813-5.594" opacity=".692" fill="#21de94"/><path d="m43.531 4l11.625 43.38c1.158 4.323 4.711 7.32 8.844 8v-21.375-30h-20.469" opacity=".692" fill="#2484e8"/><path d="m57.63 4v40.13c0 4.443 2.604 8.255 6.375 10v-20.12-30h-6.375" opacity=".692" fill="#8344e3"/><path d="m57.63 0v4h6.375v-3l-2-1h-4.375" fill="#bf99ff"/><path transform="scale(-1 1)" fill="#6bc5ff" d="m-57.62 0h5.813v4h-5.813z"/><path fill="#6dd4ff" d="m43.531 0h8.281v4h-8.281z"/><path transform="scale(-1 1)" fill="#56f6d6" d="m-43.531 0h10.469v4h-10.469z"/><path fill="#6dff98" d="m26.406 0h6.656v4h-6.656z"/><path transform="scale(-1 1)" fill="#88ee56" d="m-26.406 0h24.406v4h-24.406z"/><path d="m2 0l-2 1v3h2v-4" fill="#faeb62"/></g><path d="m0 3v3l2-2" fill="#f8ee9a"/><path d="m64 6l-2-2 2-1" fill="#8f74ee"/></svg>
